img/canva.svg

<svg width="110" height="126" viewBox="0 0 110 126" fill="none" xmlns="http://www.w3.org/2000/svg">
<g clip-path="url(#clip0_1_6)">
<path d="M51.0303 0.0588955C50.6135 0.109186 49.3124 0.285694 48.1645 0.440508C43.5369 1.04498 38.2893 2.63651 33.6841 4.85814C17.0173 12.8326 4.47347 30.3286 1.01267 50.3963C0.198055 55.1689 0 57.5138 0 63.0181C0 70.1129 0.615694 75.0088 2.2475 81.1955C7.58208 101.44 21.4701 117.318 39.1943 123.45C44.5289 125.295 48.8276 126 55 126C61.1957 126 65.4711 125.295 70.8737 123.426C88.5523 117.318 102.418 101.414 107.773 81.1176C109.384 75.0088 110 70.0863 110 63.0181C110 60.0135 109.869 56.582 109.714 55.3178C107.928 40.7278 102.681 28.459 93.9317 18.4365C85.1992 8.49086 74.53 2.45901 62.0525 0.413884C60.3337 0.13581 52.3753 -0.118599 51.0303 0.0588955ZM33.0649 39.8176C34.236 40.2219 34.7837 40.6006 35.5776 41.5088C37.1216 43.3034 37.4747 44.2865 37.4747 46.9864C37.4747 49.0089 37.4075 49.3865 36.8796 50.4456C35.8635 52.4138 33.5058 54.2321 31.8749 54.2814C30.727 54.309 30.7744 53.7273 32.0299 52.2136C33.7047 50.2188 33.9467 49.4625 33.9467 46.4815C33.926 43.6052 33.6169 42.622 32.4492 41.8134C31.4779 41.1321 30.4213 41.1824 28.8773 42.0136C24.8646 44.2126 20.522 51.5322 18.8265 59.0314C16.5764 69.0273 20.5659 77.0273 27.1353 75.6636C29.0522 75.2593 32.668 73.1412 34.236 71.4727C35.5346 70.1129 35.5346 70.0863 35.6655 68.3962C35.9548 64.8591 38.1343 61.327 41.0474 59.6861C42.389 58.9269 42.7223 58.8539 44.5289 58.8539C46.2477 58.8539 46.6446 58.9545 47.4825 59.482C50.1494 61.2274 49.5982 65.29 46.7118 65.29C45.0369 65.29 44.1758 64.304 45.39 63.7774C46.5809 63.2725 46.1366 61.3773 44.7511 60.9493C43.1193 60.4681 41.2661 61.7313 40.0985 64.1541C38.6863 67.0827 38.6217 70.5675 39.9641 72.1551C41.2661 73.7457 42.8971 72.4864 44.1552 68.8725C44.8148 67.0314 45.7629 66.0454 46.8668 66.0454C47.8356 66.0454 48.0138 66.7277 47.5927 68.7995C46.9744 72.0042 47.3947 72.8365 49.1367 71.8544C49.7085 71.5497 50.6574 70.8456 51.2292 70.3407L52.309 69.3547L53.0392 64.9863C53.8332 60.0904 54.1389 59.4317 55.7707 59.0817C57.3379 58.7504 57.691 59.6358 57.1157 62.4363L56.8057 64.0042L57.9536 62.6631C60.6644 59.482 63.9943 57.9181 65.1413 59.2316C65.757 59.9366 65.6898 60.8221 64.8089 63.95C64.3913 65.4409 63.816 67.7907 63.5543 69.1269C63.1573 71.1454 63.1332 71.6266 63.3562 71.9549C64.0623 72.9134 66.2211 71.9273 68.1388 69.7816L69.2626 68.5224L69.3969 65.718C69.5278 62.4866 69.7904 61.327 70.5405 60.2906C71.2466 59.3321 72.5253 58.6271 73.2082 58.8273C73.891 59.0314 73.891 59.7867 73.2754 62.0093C72.4142 65.0632 72.5047 72.1048 73.3864 72.1048C73.7395 72.1048 75.5452 69.9355 76.6931 68.1181L77.5508 66.777L76.8679 65.9724C75.677 64.5327 75.3911 63.5999 75.3911 61.2501C75.3911 59.5363 75.5022 58.9042 75.875 58.068C76.4942 56.7585 77.4629 55.8 78.6099 55.4184C79.8206 54.9904 81.3207 55.6955 81.9364 56.9586C82.5555 58.2455 82.4014 61.1229 81.6066 63.095L81.0348 64.5317H81.8055C82.8647 64.5317 83.2823 64.231 85.1793 62.1859C86.1713 61.1002 87.3183 60.1644 88.176 59.7098C91.5498 57.8954 95.5196 58.8273 96.1783 61.6041C96.7294 63.8267 95.5196 65.3906 93.4004 65.2131C91.8796 65.0869 91.5938 64.6313 92.4755 63.7774C94.0626 62.2588 92.4755 60.3182 90.2048 61.0233C88.97 61.4039 87.581 62.9915 86.8551 64.8364C85.3981 68.5224 86.1713 72.8631 88.2638 72.8631C89.1017 72.8631 90.5811 70.9689 91.1529 69.1269C91.8357 67.0048 93.2686 65.6687 94.3484 66.1489C94.9443 66.4004 94.9883 67.0817 94.6145 69.2274C94.1943 71.5773 94.1297 73.7733 94.4595 74.782C94.5913 75.1587 94.9883 75.8677 95.3646 76.346C96.0672 77.2541 96.0913 77.5825 95.4954 78.0134C95.2096 78.2402 94.8324 78.1406 93.9084 77.5598C92.6297 76.8005 91.5266 75.4368 91.1296 74.15L90.8876 73.3946L90.0059 74.15C89.4978 74.5543 88.7047 75.0088 88.2432 75.1587C86.4133 75.7139 84.1632 74.2772 83.1075 71.8544C82.6864 70.9176 82.5555 68.1684 82.8647 67.1084C83.0403 66.5266 83.0403 66.5266 82.3334 66.9309C81.9605 67.1587 81.1666 67.4091 80.5509 67.486C79.5348 67.6142 79.3798 67.7404 78.368 69.2038C76.9351 71.245 74.3982 74.0001 73.3623 74.5819C71.1596 75.8411 70.4328 75.4871 69.8576 72.8858L69.4606 71.1454L68.5117 72.1048C67.301 73.3177 64.8761 74.782 63.4862 75.136C62.1644 75.4634 60.7522 74.9822 60.1796 73.9725C59.3228 72.4588 59.6087 69.2541 60.9735 64.936C61.9862 61.7313 61.2603 61.682 58.7036 64.7359C56.8066 67.0314 55.992 68.6723 55.4641 71.2223C54.913 73.8729 54.25 74.8313 52.7534 75.2356C51.8483 75.4634 51.4272 74.8313 51.6064 73.4449L51.7372 72.3316L50.8994 72.9903C49.7085 73.9232 48.2084 74.782 47.1725 75.1094C46.1366 75.4368 44.7709 75.0857 44.4411 74.427C43.846 73.2684 43.846 73.2684 42.9212 74.0997C40.9131 75.9683 38.0473 75.4368 36.5938 72.9637L36.1288 72.1817L34.6761 73.722C30.485 78.114 25.2409 80.0822 21.3598 78.7185C16.4214 77.0047 13.6899 72.1551 13.7339 65.1638C13.7545 58.1459 16.4653 50.7503 21.03 45.2726C23.6099 42.1911 26.0348 40.3728 28.5045 39.6914C30.287 39.1865 31.3703 39.2132 33.0649 39.8186V39.8176Z" fill="#00C4CC"/>
<path d="M77.7488 57.7682C77.264 58.3224 77.4423 60.545 78.0588 61.9591C78.368 62.6907 78.6978 63.2725 78.808 63.2725C78.8958 63.2725 79.0939 62.6907 79.2489 61.9817C79.8 59.3588 78.808 56.5544 77.7488 57.7682Z" fill="#00C4CC"/>
</g>
<defs>
<clipPath id="clip0_1_6">
<rect width="110" height="126" fill="white"/>
</clipPath>
</defs>
</svg>

<svg xmlns="http://www.w3.org/2000/svg" width="110" height="126" fill="none"><g fill="#00C4CC" clip-path="url(#a)"><path d="M51.03.059c-.416.05-1.718.227-2.866.382-4.627.604-9.875 2.196-14.48 4.417-16.667 7.975-29.21 25.47-32.671 45.538C.198 55.17 0 57.514 0 63.018c0 7.095.616 11.99 2.248 18.177 5.334 20.245 19.222 36.123 36.946 42.255C44.53 125.295 48.828 126 55 126c6.196 0 10.471-.705 15.874-2.574 17.678-6.108 31.544-22.012 36.899-42.308 1.611-6.11 2.227-11.032 2.227-18.1 0-3.005-.131-6.436-.286-7.7-1.786-14.59-7.033-26.859-15.782-36.881C85.199 8.49 74.53 2.459 62.052.414 60.335.136 52.376-.12 51.03.059ZM33.065 39.818c1.171.404 1.719.783 2.513 1.69 1.544 1.795 1.897 2.778 1.897 5.478 0 2.023-.068 2.4-.595 3.46-1.017 1.968-3.374 3.786-5.005 3.835-1.148.028-1.1-.554.155-2.067 1.675-1.995 1.917-2.752 1.917-5.733-.021-2.876-.33-3.859-1.498-4.668-.971-.68-2.028-.63-3.572.2-4.012 2.2-8.355 9.52-10.05 17.018-2.25 9.996 1.739 17.996 8.308 16.633 1.917-.405 5.533-2.523 7.101-4.191 1.299-1.36 1.299-1.387 1.43-3.077.289-3.537 2.468-7.069 5.381-8.71 1.342-.76 1.675-.832 3.482-.832 1.719 0 2.116.1 2.953.628 2.667 1.745 2.116 5.808-.77 5.808-1.675 0-2.536-.986-1.322-1.513 1.19-.505.747-2.4-.639-2.828-1.632-.48-3.485.782-4.652 3.205-1.413 2.929-1.477 6.413-.135 8.001 1.302 1.59 2.933.331 4.191-3.282.66-1.842 1.608-2.828 2.712-2.828.969 0 1.147.683.726 2.754-.619 3.205-.198 4.037 1.544 3.055.572-.304 1.52-1.008 2.092-1.513l1.08-.986.73-4.369c.794-4.896 1.1-5.554 2.732-5.904 1.567-.332 1.92.554 1.345 3.354l-.31 1.568 1.148-1.34c2.71-3.182 6.04-4.746 7.187-3.432.616.705.549 1.59-.332 4.718-.418 1.49-.993 3.84-1.255 5.177-.397 2.018-.42 2.5-.198 2.828.706.958 2.865-.028 4.783-2.173l1.124-1.26.134-2.804c.13-3.231.393-4.391 1.143-5.427.707-.959 1.985-1.664 2.668-1.464.683.204.683.96.067 3.182-.86 3.054-.77 10.096.111 10.096.354 0 2.16-2.17 3.307-3.987l.858-1.341-.683-.805c-1.191-1.44-1.477-2.372-1.477-4.722 0-1.714.111-2.346.484-3.182.62-1.31 1.588-2.268 2.735-2.65 1.21-.428 2.71.278 3.326 1.54.62 1.288.465 4.165-.33 6.137l-.571 1.437h.77c1.06 0 1.477-.301 3.374-2.346.992-1.086 2.14-2.022 2.997-2.476 3.374-1.815 7.344-.883 8.002 1.894.551 2.223-.658 3.787-2.778 3.61-1.52-.127-1.806-.583-.925-1.437 1.588-1.518 0-3.459-2.27-2.754-1.235.38-2.624 1.968-3.35 3.813-1.457 3.686-.684 8.027 1.409 8.027.838 0 2.317-1.894 2.889-3.736.683-2.122 2.116-3.458 3.195-2.978.596.251.64.933.267 3.078-.42 2.35-.485 4.546-.155 5.555.131.377.528 1.086.905 1.564.702.908.726 1.236.13 1.667-.285.227-.663.128-1.587-.453-1.278-.76-2.381-2.123-2.778-3.41l-.242-.755-.882.755c-.508.404-1.301.859-1.763 1.009-1.83.555-4.08-.882-5.135-3.305-.422-.936-.553-3.686-.243-4.746.175-.581.175-.581-.532-.177-.373.228-1.166.478-1.782.555-1.016.128-1.171.254-2.183 1.718-1.433 2.041-3.97 4.796-5.006 5.378-2.202 1.26-2.93.905-3.504-1.696l-.397-1.74-.95.959c-1.21 1.213-3.635 2.677-5.025 3.031-1.322.327-2.734-.154-3.306-1.163-.857-1.514-.571-4.719.794-9.037 1.012-3.205.286-3.254-2.27-.2-1.897 2.295-2.712 3.936-3.24 6.486-.551 2.65-1.214 3.61-2.71 4.014-.906.227-1.327-.405-1.148-1.791l.131-1.113-.838.658c-1.19.933-2.69 1.792-3.727 2.12-1.035.327-2.401-.024-2.73-.683-.596-1.159-.596-1.159-1.52-.327-2.009 1.868-4.875 1.337-6.328-1.136l-.465-.782-1.453 1.54c-4.191 4.392-9.435 6.36-13.316 4.997-4.939-1.714-7.67-6.564-7.626-13.555.02-7.018 2.731-14.414 7.296-19.891 2.58-3.082 5.005-4.9 7.474-5.582 1.783-.505 2.866-.478 4.56.128v-.001Z"/><path d="M77.749 57.768c-.485.554-.307 2.777.31 4.191.309.732.639 1.313.749 1.313.088 0 .286-.581.44-1.29.552-2.623-.44-5.428-1.5-4.214Z"/></g><defs><clipPath id="a"><path fill="#fff" d="M0 0h110v126H0z"/></clipPath></defs></svg>
